X:1
T:Liberia, 87.87 D
T:Liberia, 87.87 D
T:William James Kirkpatrick, 1894
T:Public Domain Courtesy of the Cyber Hymnal™
C:William James Kirkpatrick, 1894
Z:Public Domain
Z:Courtesy of the Cyber Hymnal™
%%score ( 1 2 ) ( 3 4 )
L:1/8
Q:1/4=90
M:3/4
K:G
V:1 treble 
V:2 treble 
V:3 bass 
V:4 bass 
V:1
 [DB][Dc] | [Dd]3 [DG] [DF][DG] | [GB] [FA]3 [DA][DB] | [Dc]3 [DE] [DF]>D | [DB]4 [DB][Dc] | %5
 [Dd]3 [DG] [DF][DG] | [GB] [FA]3 [EA][EB] | [Ec]3 [CE] [CF]>[CD] | [B,G]4 [Ac][GB] | %9
 [FA]3 D [DG][DA] | [DB]2 [DB]2 [Ac][GB] | [FA]3 [FA] [GB][G^c] | [Fd]4 [Bd][Ac] | %13
 [GB]3 [Gd] [Fc][=FB] | [EA]2 [CE]2 [CF][CE] | [B,D][Dd] [GB]2 [FA]2 | [DG]4 |] %17
V:2
 x2 | x6 | x6 | x11/2 D/ | x6 | x6 | x6 | x6 | x6 | x3 D x2 | x6 | x6 | x6 | x6 | x6 | x6 | x4 |] %17
V:3
 G,[G,A,] | [G,B,]3 [B,D] [A,C][G,B,] | [D,D] [D,D]3 [D,F,][D,G,] | [D,A,]3 [D,A,] [D,A,]>[D,F,] | %4
 [G,,G,]4 G,[G,A,] | [G,B,]3 [B,D] [A,C][G,B,] | [D,D] [D,D]3 [C,A,][B,,^G,] | %7
 [A,,A,]3 [A,,A,] [D,A,]>[D,F,] | [G,,D,G,]4 z2 | [D,D][D,D] [D,D][C,F,] [B,,G,][D,F,] | %10
 G,2 G,2 z2 | [A,D][A,D] [A,D][A,D] [A,^C]A, | [D,A,]4 z2 | [G,D][G,D] [G,D][B,D] [A,D][G,D] | %14
 [C,C]2 [C,G,]2 [C,G,][C,G,] | [D,G,][D,B,] [D,D]2 [D,C]2 | [G,,G,B,]4 |] %17
V:4
 G, x | x6 | x6 | x6 | x4 G, x | x6 | x6 | x6 | x6 | x6 | G,2 G,2 x2 | x5 A, | x6 | x6 | x6 | x6 | %16
 x4 |] %17

